X:1
T:Dance with Larry
C:Sarah Gowan 2007 
R:reel
M:4/4
K:Am
cd|:"Am"edcB cBAG|AGFE"G"D2d2|"Am"edcB cBAG|ABce"Bb"d2 f2|
"C"edef edef|"Am"eagf edef|"Am"ecdB "F"cAB^G|"E7"EcB^G "F"ABcd:|
|:"Am"ea2g f2e2|"F"ea2g f2e2|"G"Bcde fdec|"F"ABcA "E7"B2E2|
"Am"ea2g f2e2|"F"eagf f2e2|"Am"ecdB "F"cAB^G|"E7"EcB^G "F"ABcd:|
%%vskip .25in
W:Every year at least one set in the Rum & Onions repertoire completely defeats me as   
W:a player and is branded with the notation "DWL" at the top of the page. Thanks to   
W:Larry Koplik who cheerfully acknowledges the difficulty of the tunes and invites 
W:me to dance instead. I now enjoy my "DWL sets" as a well-deserved break, and 
W:the time I can appreciate how great the band sounds from the dance floor.
W:Further trivia: Larry and I were delighted to discover we are vaguely related.  
W:His wife is my stepfather's stepsister's cousin.
